X:1
T:Gionto m'hamor
T:Gionto m'hamor
T:Anonymous
T:Source: Musica divina---Anversa---P.Phalesio & G.Bellero---1583. Editor: André Vierendeels (03/12/13). 
T:Notes : Original clefs : G2, C1, C2, C4 Editorial accidentals above the staff 
C:Anonymous
%%score [ 1 2 3 4 ]
L:1/8
Q:1/4=104
M:2/2
K:C
V:1 treble nm="Canto 1" snm="C 1"
V:2 treble nm="Canto 2" snm="C 2"
V:3 treble nm="Alto" snm="A"
V:4 treble-8 nm="Tenor" snm="T"
V:1
 A8 | _B4 G4 | A8 | A4 B2 B2 | c2 c2 d4 | ^c2 c2 d2 d2 | e4 c4 | c8 | c4 f4- | f2 f2 f4 | %10
w: Gion-|to m'ha-|mor,|fra bel- l'e|cru- de brac-|cia, fra bel- l'e|cru- de|brac-|cia, che|_ m'an- ci-|
 d2 d2 ^c4 | d2 d4 d2 | d4 d4 | z8 | z4 d4 | d4 ^c4 | d8 | z4 g4 | g4 ^f4 | g2 g4 g2 | g4 f2 f2 | %21
w: do- n'a tor-|to'e s'io mi|do- glio,||dop-|pia'il mar-|tir,|dop-|pia'il mar-|tir on- de|pur com' io|
 e4 e2 e2 | f3 e d2 d2 | e4 e2 e2 | f3 e d2 d2 | e8 | d4 z2 d2 | d8 | c4 z2 c2 | B2 A2 A4 | %30
w: so- glio, il|me- glio'e ch'io mi|mo- ra, il|me- glio'e ch'io mi|mo-|ra, mi|mo-|ra, a-|man- do'e tac-|
 A2 A2 f3 e | d2 d2 e4 | e2 e2 f3 e | d2 d2 e4- | e4 d4 | z2 d2 d4- | d4 c4 | z2 c2 B2 A2 | A8 | %39
w: cia, il me- glio'e|ch'io mi mo-|ra, il me- glio'e|ch'io mi mo-|* ra,|mi mo-|* ra|a- man- do'e|tac-|
 A8 |] %40
w: cia.|
V:2
 ^F8 | G4 D4 | E4 z2 E2 | ^F2 F2 G2 G2 | A4 D4 | z2 E2 ^F2 F2 | G4 A4 | G8 | A4 c4- | c2 c2 c4 | %10
w: Gion-|to m'ha-|mor, fra|bel- l'e cru- de|brac- cia,|fra bel- l'e|cru- de|brac-|cia, che|_ m'an- ci-|
 _B2 B2 A4 | A2 A4 B2 | A4 B4 | z4 A4 | A4 G4 | A8 | z4 A4 | A4 d4 | d8 | z2 e4 e2 | e4 c2 d2 | %21
w: do- n'a tor-|to'e s'io mi|do- glio,|dop-|pia'il mar-|tir,|dop-|pia'il mar-|tir|on- de|pur com' io|
 B4 ^c4 | z2 A2 B3 A | G2 G2 c4 | A2 A2 B3 A | G2 G2 c4 | A4 z2 _B2 | _B8 | A4 z2 A2 | G2 F2 E4 | %30
w: so- glio,|il me- glio'e|ch'io mi mo-|ra, il me- glio'e|ch'io mi mo-|ra, mi|mo-|ra, a-|man- do'e fac-|
 ^F4 z2 A2 | B3 A G2 G2 | c4 A2 A2 | B3 A G2 G2 | c4 A4 | z2 _B2 B4- | B4 A4 | z2 A2 G2 F2 | E8 | %39
w: cia, il|me- glio'e ch'io mi|mo- ra, il|me- glio'e ch'io mi|mo- ra,|mi mo-|* ra,|a- man- do'e|tac-|
 F8 |] %40
w: cia.|
V:3
 z4 D4 | D4 D4- | D2 ^CB, C4 | D4 D4 | F2 F2 F2 G2 | A4 A4 | z2 E2 F2 F2 | E2 F4 E2 | F4 A4- | %9
w: Gion-|to m'ha-||mor, fra|bel- l'e cru- de|brac- cia,|fra bel- l'e|cru- de bac-|cia, che|
 A2 A2 A4 | F2 G2 E4 | D2 ^F4 G2- |"^#" G2 F2 G4 | z4 F4 | E4 D4 | E8 | z4 F4 | F4 G4 | A8 | %19
w: _ m'an- ci-|do- n'a tor-|to'e s'io mi|_ do- glio,|dop-|pia'il mar-|tir,|dop-|pia'il mar-|tir|
 z2 c4 c2 | c4 A2 A2- |"^#" A2 G2 A4 | z2 D2 G3 F | E2 E2 A4 | F2 D2 G3 F | E2 E2 A4 | ^F4 z2 G2 | %27
w: on- de|pur com' io|_ so- glio,|il me- glio'e|ch'io mi mo-|ra, il me- glio'e|ch'io mi mo-|ra, mi|
 F8 | F4 z2 F2 |"^#" D2 D4 C2 | D4 z2 D2 | G3 F E2 E2 | A4 F2 D2 | G3 F E2 E2 | A4 ^F4 | %35
w: mo-|ra, a-|man- do'e fac-|cia, il|me- glio'e ch'io mi|mo- ra, il|me- glio'e ch'io- mi|mo- ra,|
 z2 G2 F4- | F4 F4 | z2 F2 D2 D2- |"^#" D2 CB, C4 | D8 |] %40
w: mi mo-|* ra,|a- man- do'e|_ _ _ tac-|cia.|
V:4
 d8 | G4 _B4 | A8 | z2 D2 G2 G2 | F2 F2 _B4 | A2 A2 d2 d2 | c4 F4 | c8 | F4 F4- | F2 F2 F4 | %10
w: Gion-|to m'ha-|mor,|fra bel- l'e|cru- de brac-|cia, fra bel- l'e|cru- de|brac-|cia, che|_ m'an- ci-|
"^b" B2 G2 A4 | D2 d4 G2 | d4 G4 | z4 d4 | c4 _B4 | A8 | z4 d4 | d4 G4 | d8 | z2 c4 c2 | c4 f2 d2 | %21
w: do- n'a tor-|to'e s'io mi|do- glio,|dop-|pia'il mar-|tir,|dop-|pia'il mar-|tir|on- de|pur com' io|
 e4 A4 | z4 G4 | c3 B A2 A2 | d4 G2 G2 | c3 B A2 A2 | d4 G2 G2 | _B8 | F4 z2 F2 | G2 D2 A4 | %30
w: so- glio,|il|me- glio'e ch'io mi|mo- ra, il|me- glio'e ch'io mi|mo- ra, mi|mo-|ra, a-|man- do'e fac-|
 D4 z4 | z2 G2 c3 B | A2 A2 d4 | G2 G2 c3 B | A2 A2 d4 | G2 G2 _B4- | B4 F4 | z2 F2 G2 D2 | A8 | %39
w: cia,|il me- glio'e|ch'io mi mo-|ra, il me- glio'e|ch'io mi mo-|ra, mi mo-|* ra,|a- man- do'e|tac-|
 D8 |] %40
w: cia.|

